!!!!SEGMENT: pl-cz--i-155--010_anonim--landler-3.krn
!!!cenid: 18xx:2519
!!!COM: Anonim
!!!COM-rismID: pe30004985
!!!CDT:
!!!CNT:
!!!OTL: Ländler 3
!!!PDT:
!!!AGN: Secular
!!!SMS-siglum: PL-CZ
!!!SMS-shelfmark: I-155
!!!SMS-shelfwork: 010 W
!!!SMS-variant:
!!!SMS-altvar:
!!!NIFC-rismSourceID: 1001012506
!!!NIFC-rismChildID: 1001012522
!!!NIFC-islandoraID: pl-cz:814
!!!URL-pdf-islandora: https://repozytorium.nifc.pl/islandora/object/pl-cz%3A814/datastream/PDF/view
!!!URL-scan: https://polish.musicsources.pl/pl/lokalizacje/galeria/rekopisy/557 @EN{Scan on Polish Music Sources Website} @PL{Skany w portalu Dziedzictwo Muzyki Polskiej w otwartym dostępie}
!!!ONB-nifc: UWAGA: 10 krótkich Landler numerowanych na pięcioliniach (nr 1-10, odpowiednio 008-017). m.in skan 0026. Uwaga: 5 partii
!!!AIN: 2 clars 2 cor 1 fagot
!!!key:
**kern	**kern	**kern	**kern	**kern
*part5	*part4	*part3	*part2	*part1
*staff5	*staff4	*staff3	*staff2	*staff1
*Icor	*Icor	*Ifagot	*Iclars	*Iclars
*I"Corno Secondo	*I"Corno Primo.	*I"Fagotto	*I"Clarinetto Secondo	*I"Clarinetto Primo
*I'cor 2	*I'cor 1	*I'fag	*I'cl 2	*I'cl 1
*clefG2	*clefG2	*clefF4	*clefG2	*clefG2
*	*	*	*ITrd1c2	*ITrd1c2
*k[]	*k[]	*k[]	*k[b-]	*k[b-]
*F:	*F:	*F:	*F:	*F:
*M3/4	*M3/4	*M3/4	*M3/4	*M3/4
*	*	*	*all\right	*all\right
!	!	!	!	!LO:TX:t=P:problem=skan 0026
!	!	!	!LO:TX:t=P:problem=skan 0038	!
.	.	.	.	16qqgg/
4ryy	4ryy	4ryy	4ryy	8ff\L
.	.	.	.	8ee\J
=1	=1	=1	=1	=1
*	*	*	*tremolo	*
2.ryy	2.ryy	2.ryy	8A/L	8ff\L
.	.	.	8c/	8aa\J
.	.	.	8A/	4cc\
.	.	.	8c/	.
.	.	.	8A/	8a\L
.	.	.	8c/J	8cc\J
=2	=2	=2	=2	=2
2.ryy	2.ryy	2.ryy	8A/L	8ff\L
.	.	.	8c/	8aa\J
.	.	.	8A/	4ccc\
.	.	.	8c/	.
.	.	.	8A/	8ee\L
.	.	.	8c/J	8dd\J
=3	=3	=3	=3	=3
2.ryy	2.ryy	2.ryy	8B-/L	8ee\L
.	.	.	8c/	8gg\J
.	.	.	8B-/	4b-\
.	.	.	8c/	.
.	.	.	8B-/	8g\L
.	.	.	8c/J	8b-\J
=4	=4	=4	=4	=4
2.ryy	2.ryy	2.ryy	8G/L	8ee\L
.	.	.	8c/	8gg\J
.	.	.	8G/	4bb-\
.	.	.	8c/	.
.	.	.	.	16qqgg/
.	.	.	8G/	8ff\L
.	.	.	8c/J	8ee\J
=5	=5	=5	=5	=5
2.ryy	2.ryy	2.ryy	8A/L	8ff\L
.	.	.	8c/	8aa\J
.	.	.	8A/	4cc\
.	.	.	8c/	.
.	.	.	8A/	8a\L
.	.	.	8c/J	8cc\J
*	*	*	*Xtremolo	*
=6	=6	=6	=6	=6
2.ryy	2.ryy	2.ryy	8c/L	8ff\L
.	.	.	8f/J	8aa\J
.	.	.	8a\L	4ccc\
.	.	.	8cc\	.
!	!	!	!	!LO:LB:g=original
=-	=-	=-	=-	=-
.	.	.	8ff\	8aa\L
.	.	.	8cc\J	8ff\J
=7	=7	=7	=7	=7
2.ryy	2.ryy	2.ryy	8b-\L	8ee\L
.	.	.	8ee\	8gg\J
.	.	.	8gg\	4bb-\
.	.	.	8ee\	.
.	.	.	8cc\	8gg\L
.	.	.	8b-\J	8ee\J
=8	=8	=8	=8	=8
*	*	*	*2\right	*2\right
2ryy	2ryy	2ryy	2a\	2ff\
=:!|:	=:!|:	=:!|:	=:!|:	=:!|:
4ryy	4ryy	4ryy	4g/	4cc\
!	!	!	!LO:LB:g=original	!
=9	=9	=9	=9	=9
2.ryy	2.ryy	2.ryy	8g\L	8cc\L
.	.	.	8ee\	8gg\
.	.	.	8ee\	8gg\
.	.	.	8cc\J	8ee\J
.	.	.	4g/	4cc\
=10	=10	=10	=10	=10
2.ryy	2.ryy	2.ryy	8a\L	8cc\L
.	.	.	8aa\	8ccc\
.	.	.	8aa\	8ccc\
.	.	.	8ff\J	8aa\J
.	.	.	4cc\	4ff\
=11	=11	=11	=11	=11
2.ryy	2.ryy	2.ryy	8ee\L	8cc\L
.	.	.	8gg\	8bb-\
.	.	.	8gg\	8bb-\
.	.	.	8ee\J	8gg\J
.	.	.	4cc\	4ee\
=12	=12	=12	=12	=12
2.ryy	2.ryy	2.ryy	8a\L	8cc\L
.	.	.	8ff\	8aa\
.	.	.	8ff\	8aa\
.	.	.	8cc\J	8ff\J
.	.	.	4a\	4cc\
=13	=13	=13	=13	=13
2.ryy	2.ryy	2.ryy	8g\L	8cc\L
.	.	.	8ee\	8gg\
.	.	.	8ee\	8gg\
.	.	.	8cc\J	8ee\J
.	.	.	4g/	4cc\
=14	=14	=14	=14	=14
2.ryy	2.ryy	2.ryy	8a\L	8cc\L
.	.	.	8aa\	8ccc\
.	.	.	8aa\	8ccc\
.	.	.	8ff\J	8aa\J
.	.	.	4cc\	4ff\
=15	=15	=15	=15	=15
2.ryy	2.ryy	2.ryy	8cc\L	8cc\L
.	.	.	8gg\	8bb-\
.	.	.	8gg\	8bb-\
.	.	.	8ee\	8gg\J
.	.	.	8cc\	4ee\
.	.	.	8b-\J	.
=16	=16	=16	=16	=16
2ryy	2ryy	2ryy	2a\	2ff\
!	!	!	!LO:LB:g=original	!LO:LB:g=original
=:|!	=:|!	=:|!	=:|!	=:|!
*-	*-	*-	*-	*-
!!!system-decoration: [(s1,s2,s3)][(s4,s5)]
!!!ENC: Krzysztof Stępień
!!!END: 2021-06-16
!!!ENC: Marta Chmielewska
!!!END: 2021-06-25
!!!YEC: Copyright 2022 Narodowy Instytut Fryderyka Chopina (https://polishscores.org)
!!!YEM: License CC-BY-4.0 (https://creativecommons.org/licenses/by/4.0)
